svg/experiments.svg

<?xml version="1.0" encoding="UTF-8" standalone="no"?>
<svg
   width="25"
   height="25"
   viewBox="0 0 25 25"
   fill="none"
   version="1.1"
   id="svg2"
   sodipodi:docname="experiments.svg"
   inkscape:version="1.4 (86a8ad7, 2024-10-11)"
   xmlns:inkscape="http://www.inkscape.org/namespaces/inkscape"
   xmlns:sodipodi="http://sodipodi.sourceforge.net/DTD/sodipodi-0.dtd"
   xmlns="http://www.w3.org/2000/svg"
   xmlns:svg="http://www.w3.org/2000/svg">
  <defs
     id="defs2" />
  <sodipodi:namedview
     id="namedview2"
     pagecolor="#ffffff"
     bordercolor="#000000"
     borderopacity="0.25"
     inkscape:showpageshadow="2"
     inkscape:pageopacity="0.0"
     inkscape:pagecheckerboard="0"
     inkscape:deskcolor="#d1d1d1"
     inkscape:zoom="31.32"
     inkscape:cx="12.5"
     inkscape:cy="12.5"
     inkscape:window-width="1920"
     inkscape:window-height="1001"
     inkscape:window-x="-9"
     inkscape:window-y="-9"
     inkscape:window-maximized="1"
     inkscape:current-layer="svg2" />
  <g
     id="g2"
     transform="translate(0.27111021,0.51825185)">
    <path
       d="M 8.49585,1.97515 C 8.70664,1.61858 9.16658,1.50041 9.52315,1.71119 l 0.83175,0.4917 9.2471,5.30719 c 0.3593,0.20619 0.4833,0.66456 0.2772,1.02381 -0.2062,0.35925 -0.6646,0.48334 -1.0239,0.27715 L 18.0117,8.32683 16.5069,10.9242 16.5051,10.9232 13.947,9.45137 C 13.588,9.2448 13.1295,9.36839 12.9229,9.72742 12.7164,10.0865 12.8399,10.545 13.199,10.7515 l 2.5559,1.4706 -0.9614,1.6596 -0.0018,-0.0011 -4.203,-2.4182 c -0.359,-0.2066 -0.81755,-0.083 -1.02412,0.2761 -0.20657,0.359 -0.08298,0.8175 0.27605,1.0241 l 4.20087,2.417 -0.8856,1.5286 -0.0018,-0.001 -2.6127,-1.5033 C 10.1824,14.9974 9.72385,15.121 9.51728,15.48 9.31071,15.839 9.4343,16.2975 9.79333,16.5041 l 2.61067,1.502 -1.1193,1.932 C 9.94468,22.251 6.97691,23.0435 4.65597,21.7081 2.33503,20.3728 1.53981,17.4152 2.87981,15.1023 L 9.60156,3.50002 9.5957,3.49659 8.75981,3.00244 C 8.40324,2.79165 8.28506,2.33172 8.49585,1.97515 Z"
       fill="#2d2d2d"
       id="path1" />
    <path
       d="m 20.2289,17.3566 c 1.1046,0 2,-0.9327 2,-2.0833 0,-0.7199 -0.783,-1.6808 -1.3691,-2.2992 -0.347,-0.3662 -0.9148,-0.3662 -1.2618,0 -0.5861,0.6184 -1.3691,1.5793 -1.3691,2.2992 0,1.1506 0.8954,2.0833 2,2.0833 z"
       fill="#2d2d2d"
       id="path2" />
  </g>
</svg>

<svg width="25" height="25" viewBox="0 0 25 25" fill="none" xmlns="http://www.w3.org/2000/svg">
<path d="M8.49585 1.97515C8.70664 1.61858 9.16658 1.50041 9.52315 1.71119L10.3549 2.20289L19.602 7.51008C19.9613 7.71627 20.0853 8.17464 19.8792 8.53389C19.673 8.89314 19.2146 9.01723 18.8553 8.81104L18.0117 8.32683L16.5069 10.9242L16.5051 10.9232L13.947 9.45137C13.588 9.2448 13.1295 9.36839 12.9229 9.72742C12.7164 10.0865 12.8399 10.545 13.199 10.7515L15.7549 12.2221L14.7935 13.8817L14.7917 13.8806L10.5887 11.4624C10.2297 11.2558 9.77115 11.3794 9.56458 11.7385C9.35801 12.0975 9.4816 12.556 9.84063 12.7626L14.0415 15.1796L13.1559 16.7082L13.1541 16.7072L10.5414 15.2039C10.1824 14.9974 9.72385 15.121 9.51728 15.48C9.31071 15.839 9.4343 16.2975 9.79333 16.5041L12.404 18.0061L11.2847 19.9381C9.94468 22.251 6.97691 23.0435 4.65597 21.7081C2.33503 20.3728 1.53981 17.4152 2.87981 15.1023L9.60156 3.50002L9.5957 3.49659L8.75981 3.00244C8.40324 2.79165 8.28506 2.33172 8.49585 1.97515Z" fill="#2D2D2D"/>
<path d="M20.2289 17.3566C21.3335 17.3566 22.2289 16.4239 22.2289 15.2733C22.2289 14.5534 21.4459 13.5925 20.8598 12.9741C20.5128 12.6079 19.945 12.6079 19.598 12.9741C19.0119 13.5925 18.2289 14.5534 18.2289 15.2733C18.2289 16.4239 19.1243 17.3566 20.2289 17.3566Z" fill="#2D2D2D"/>
</svg>
